src/assets/svg/Logo.svg

<svg width="610" height="240" viewBox="0 0 610 240" fill="none" xmlns="http://www.w3.org/2000/svg">
<g clip-path="url(#clip0)">
<path d="M234.44 118.223V101.153H209.92V81.4637H189.97V101.153H169.25V118.223H189.97V144.002C189.97 156.181 192.31 163.461 197.35 168.501C204.2 175.361 213.44 177.041 221.24 177.041C230.58 177.041 233.59 175.511 233.59 175.511V158.671C229.749 159.223 225.87 159.477 221.99 159.431C219.62 159.431 215.46 158.901 212.77 156.211C210.43 153.871 209.88 149.992 209.88 146.732V118.223H234.44Z" fill="#0B0E35"/>
<path d="M289.75 99.6131C281.39 99.6131 273.98 102.543 269.42 107.103C268.923 107.598 268.452 108.119 268.01 108.663V101.153H248.84V175.541H268.75V129.002C270.774 125.648 273.63 122.873 277.041 120.946C280.452 119.019 284.302 118.005 288.22 118.003C290.96 118.022 293.694 118.279 296.39 118.773V100.233C294.196 99.8569 291.976 99.6496 289.75 99.6131V99.6131Z" fill="#0B0E35"/>
<path d="M471.61 101.153H450.61L430.37 145.492L408.74 101.153H386.8L420.09 168.021V168.031L405.02 200H425.87L471.61 101.153Z" fill="#0B0E35"/>
<path d="M359.31 101.153V107.053C353.059 102.272 345.42 99.6599 337.55 99.6131C317.45 99.6131 300.98 116.303 300.98 138.422C300.98 160.541 317.98 177.071 338.45 177.071C351.2 177.071 358.57 170.341 359.27 169.681V175.541H378.41V101.153H359.31ZM340.55 158.671C329.84 158.671 320.94 150.522 320.94 138.422C320.94 126.852 329.18 118.023 340.09 118.023C343.628 118.042 347.116 118.851 350.301 120.391C353.486 121.93 356.287 124.162 358.5 126.922V149.792C356.408 152.569 353.695 154.819 350.578 156.361C347.462 157.903 344.027 158.694 340.55 158.671V158.671Z" fill="#0B0E35"/>
<path d="M470.67 150.922C473.244 150.979 475.744 151.794 477.856 153.266C479.969 154.737 481.6 156.799 482.546 159.194C483.491 161.588 483.709 164.209 483.172 166.726C482.635 169.244 481.367 171.548 479.527 173.348C477.687 175.149 475.356 176.366 472.827 176.847C470.298 177.329 467.683 177.054 465.31 176.056C462.937 175.058 460.911 173.382 459.486 171.237C458.061 169.093 457.301 166.576 457.3 164.002C457.302 162.26 457.652 160.536 458.328 158.931C459.004 157.327 459.994 155.873 461.239 154.655C462.484 153.437 463.959 152.479 465.579 151.838C467.198 151.197 468.929 150.886 470.67 150.922V150.922Z" fill="#0B0E35"/>
<path d="M507.36 63.455C509.868 63.5062 512.305 64.2967 514.366 65.7273C516.426 67.158 518.019 69.1651 518.943 71.4971C519.868 73.829 520.083 76.3821 519.563 78.836C519.042 81.29 517.809 83.5356 516.017 85.2914C514.225 87.0472 511.955 88.235 509.491 88.7059C507.027 89.1768 504.479 88.9097 502.166 87.9383C499.854 86.9669 497.879 85.3343 496.49 83.2452C495.102 81.1561 494.361 78.7036 494.36 76.195C494.365 74.5014 494.707 72.8257 495.365 71.2653C496.023 69.7049 496.985 68.2909 498.195 67.1055C499.404 65.9201 500.838 64.9869 502.411 64.3602C503.984 63.7335 505.667 63.4258 507.36 63.455V63.455Z" fill="#0B0E35"/>
<path d="M517.32 101.153H497.41V175.541H517.32V101.153Z" fill="#0B0E35"/>
<path d="M570.26 99.6131C548.4 99.6131 530.68 116.483 530.68 138.342C530.68 160.201 548.4 177.081 570.26 177.081C592.12 177.081 609.85 160.211 609.85 138.342C609.85 116.473 592.12 99.6131 570.26 99.6131ZM570.26 158.671C559.41 158.671 550.62 150.462 550.62 138.342C550.62 126.422 559.41 118.023 570.26 118.023C581.11 118.023 589.92 126.422 589.92 138.342C589.92 150.462 581.11 158.671 570.26 158.671V158.671Z" fill="#0B0E35"/>
<path d="M99.55 40.005C88.9891 40.005 78.8607 44.2002 71.393 51.6676C63.9253 59.1351 59.73 69.2632 59.73 79.8238V87.2935H79.64V79.8238C79.642 75.8865 80.8114 72.0382 83.0003 68.7654C85.1892 65.4927 88.2994 62.9424 91.9377 61.437C95.5759 59.9317 99.5789 59.5388 103.44 60.3081C107.302 61.0775 110.849 62.9745 113.632 65.7592C116.415 68.544 118.311 72.0915 119.078 75.9533C119.846 79.8151 119.451 83.8177 117.943 87.4551C116.436 91.0924 113.884 94.2013 110.61 96.3885C107.336 98.5757 103.487 99.7431 99.55 99.7431H39.82C29.2591 99.7431 19.1307 103.938 11.663 111.406C4.19531 118.873 0 129.001 0 139.562C0 150.122 4.19531 160.251 11.663 167.718C19.1307 175.185 29.2591 179.381 39.82 179.381H47.28V159.471H39.82C34.5395 159.471 29.4753 157.374 25.7415 153.64C22.0077 149.906 19.91 144.842 19.91 139.562C19.91 134.282 22.0077 129.218 25.7415 125.484C29.4753 121.75 34.5395 119.653 39.82 119.653H59.73V179.381H79.64V119.653H99.55C104.833 119.736 110.08 118.768 114.985 116.804C119.89 114.84 124.356 111.92 128.121 108.214C131.887 104.508 134.877 100.089 136.919 95.2162C138.96 90.3429 140.011 85.1122 140.011 79.8288C140.011 74.5453 138.96 69.3146 136.919 64.4413C134.877 59.568 131.887 55.1496 128.121 51.4433C124.356 47.7371 119.89 44.817 114.985 42.8533C110.08 40.8895 104.833 39.9213 99.55 40.005Z" fill="#0B0E35"/>
</g>
<defs>
<clipPath id="clip0">
<rect width="609.85" height="240" fill="white"/>
</clipPath>
</defs>
</svg>

<svg viewBox="0 0 610 240" fill="none" xmlns="http://www.w3.org/2000/svg"><g clip-path="url(#clip0)" fill="#0B0E35"><path d="M234.44 118.223v-17.07h-24.52v-19.69h-19.95v19.69h-20.72v17.07h20.72v25.779c0 12.179 2.34 19.459 7.38 24.499 6.85 6.86 16.09 8.54 23.89 8.54 9.34 0 12.35-1.53 12.35-1.53v-16.84a75.28 75.28 0 01-11.6.76c-2.37 0-6.53-.53-9.22-3.22-2.34-2.34-2.89-6.219-2.89-9.479v-28.509h24.56zM289.75 99.613c-8.36 0-15.77 2.93-20.33 7.49a20.023 20.023 0 00-1.41 1.56v-7.51h-19.17v74.388h19.91v-46.539a22.758 22.758 0 0119.47-10.999c2.74.019 5.474.276 8.17.77v-18.54a43.525 43.525 0 00-6.64-.62zM471.61 101.153h-21l-20.24 44.339-21.63-44.339H386.8l33.29 66.868v.01L405.02 200h20.85l45.74-98.847zM359.31 101.153v5.9a36.171 36.171 0 00-21.76-7.44c-20.1 0-36.57 16.69-36.57 38.809 0 22.119 17 38.649 37.47 38.649 12.75 0 20.12-6.73 20.82-7.39v5.86h19.14v-74.388h-19.1zm-18.76 57.518c-10.71 0-19.61-8.149-19.61-20.249 0-11.57 8.24-20.399 19.15-20.399a23.761 23.761 0 0118.41 8.899v22.87a22.297 22.297 0 01-17.95 8.879zM470.67 150.922c2.574.057 5.074.872 7.186 2.344a13.074 13.074 0 015.316 13.46 13.08 13.08 0 01-25.872-2.724 13.104 13.104 0 018.279-12.164 13.095 13.095 0 015.091-.916zM507.36 63.455a12.742 12.742 0 0112.203 15.381 12.741 12.741 0 01-25.203-2.641 12.785 12.785 0 018.051-11.835 12.779 12.779 0 014.949-.905zM517.32 101.153h-19.91v74.388h19.91v-74.388zM570.26 99.613c-21.86 0-39.58 16.87-39.58 38.729 0 21.859 17.72 38.739 39.58 38.739s39.59-16.87 39.59-38.739c0-21.869-17.73-38.729-39.59-38.729zm0 59.058c-10.85 0-19.64-8.209-19.64-20.329 0-11.92 8.79-20.319 19.64-20.319 10.85 0 19.66 8.399 19.66 20.319 0 12.12-8.81 20.329-19.66 20.329zM99.55 40.005a39.82 39.82 0 00-39.82 39.819v7.47h19.91v-7.47a19.91 19.91 0 1119.91 19.92H39.82a39.819 39.819 0 100 79.637h7.46v-19.91h-7.46a19.909 19.909 0 110-39.818h19.91v59.728h19.91v-59.728h19.91a39.84 39.84 0 0037.369-24.437 39.833 39.833 0 00-8.798-43.773A39.825 39.825 0 0099.55 40.005z"/></g><defs><clipPath id="clip0"><path fill="#fff" d="M0 0h609.85v240H0z"/></clipPath></defs></svg>
